src/icons/supabase.svg

<svg viewBox="0 0 24 24" xmlns="http://www.w3.org/2000/svg">
  <path
    d="m13.653 21.504c-0.48617 0.60771-1.4716 0.27394-1.4828-0.50113l-0.17016-5.7303-0.03553-5.6097h7.718c1.3912 0 2.1681 1.595 1.3024 2.6767zm-3.2274-18.983c0.49084-0.65446 1.4866-0.29544 1.4978 0.53946l0.07572 12.212h-7.6665c-1.4043 0-2.1887-1.7175-1.3145-2.8824z"
    fill="#66bb6a"
    stroke-width=".93494"
  />
</svg>

<svg viewBox="0 0 24 24" xmlns="http://www.w3.org/2000/svg">
  <path
    d="M13.6527 21.504C13.1665 22.1117 12.1811 21.7779 12.1699 21.0029L11.9997 15.2726L11.9642 9.66286H19.6822C21.0734 9.66286 21.8503 11.2579 20.9846 12.3396L13.6527 21.504ZM10.4253 2.52099C10.9161 1.86653 11.9119 2.22555 11.9231 3.06045L11.9997 15.2726L4.33231 15.2725C2.92801 15.2725 2.14361 13.555 3.01781 12.3901L10.4253 2.52099Z"
    fill="#66BB6A"
  />
</svg>
